Icons/TM_Icons/more icons/number-06.svg

<?xml version='1.0' encoding='utf-8'?>
<ns0:svg xmlns:ns0="http://www.w3.org/2000/svg" version="1.1" viewBox="173.0 0.0 1480.0 1480.0" role="img" focusable="false" preserveAspectRatio="xMidYMid meet">
   <ns0:path fill="currentColor" d="M173 60c0 -204.667 72.167 -379.17 216.5 -523.5s318.833 -216.5 523.5 -216.5c204.67 0 379.17 72.1699 523.5 216.5s216.5 318.833 216.5 523.5s-72.1699 379.167 -216.5 523.5s-318.83 216.5 -523.5 216.5c-204.667 0 -379.167 -72.167 -523.5 -216.5 s-216.5 -318.833 -216.5 -523.5zM744 25v-25c0.000976562 -231.33 77.334 -347 232 -347c40 0 77.6699 9 113 27c17.3301 8.66992 27.3301 39.6699 30 93l2 23h85v-187c-39.3301 -12.6699 -80 -22 -122 -28s-85.333 -9 -130 -9c-123.334 0 -221.667 46 -295 138 c-73.334 92 -110.001 215 -110 369c0 146.667 32.5 261 97.5 343s155.5 123 271.5 123c97.3301 0 177.83 -31.5 241.5 -94.5s95.5 -143.167 95.5 -240.5c0 -85.333 -27.1699 -155.667 -81.5 -211s-123.5 -83 -207.5 -83c-93.333 0 -167.333 36.333 -222 109zM749 186 c0 -112.667 53.667 -169 161 -169c105.33 0.000976562 158 75.667 158 227c0 146.667 -47.3301 220 -142 220c-118 0 -177 -92.667 -177 -278z" />
</ns0:svg>

<svg xmlns="http://www.w3.org/2000/svg" width="400" height="200" viewBox="-567 -680 2960 1480"><path fill="currentColor" d="M173 60c0-204.667 72.167-379.17 216.5-523.5S708.333-680 913-680c204.67 0 379.17 72.17 523.5 216.5S1653-144.667 1653 60s-72.17 379.167-216.5 523.5S1117.67 800 913 800q-307 0-523.5-216.5C173 367 173 264.667 173 60m571-35V0c.001-231.33 77.334-347 232-347 40 0 77.67 9 113 27q25.995 13.005 30 93l2 23h85v-187c-39.33-12.67-80-22-122-28s-85.333-9-130-9q-185 0-295 138Q548.999-152 549 79q0 220 97.5 343C744 545 802 545 918 545q145.995 0 241.5-94.5C1255.005 356 1255 307.333 1255 210c0-85.333-27.17-155.667-81.5-211S1050-84 966-84Q826-84 744 25m5 161q0-169 161-169c105.33.001 158 75.667 158 227 0 146.667-47.33 220-142 220q-177 0-177-278"/></svg>
